X: 13
T: Jock's to be Married to morrow.
%R: slip-jig
B: "Twenty Four Country Dances for the Year 1799", Thomas Skillern, ed. p.7 #1
F: http://www.vwml.org/browse/browse-collections-dance-tune-books/browse-skillerns1799
Z: 2014 John Chambers <jc:trillian.mit.edu>
M: 9/8
L: 1/8
K: F
C |\
F2F Acd cAF | G2F GAc d2f |\
F>GA fed cAF | GAc AGF D2 :|
|: a/g/ |\
fef f>gf edc | dcA f>ga g2f |\
fga gaf edc | d/e/fd cAF D2 :|
%%begintext align
%% First Cu: Hands 3 with 2d Lady, same with 2d
%% Gent., down middle up again, Allemande.
%%endtext
